assets/icons/standard/employee_contact.svg

<?xml version="1.0"?><svg xmlns="http://www.w3.org/2000/svg" width="100" height="100" viewBox="0 0 100 100"><title></title><path d="m73.8 29.7h-47.5a6 6 0 0 0-6 6v28.6a6 6 0 0 0 6 6h47.4a6 6 0 0 0 6-6v-28.6a6.1 6.1 0 0 0-5.9-6z m-34.9 5.4a7.6 7.6 0 1 1-7.6 7.6 7.7 7.7 0 0 1 7.6-7.6z m9.8 28.3h-19.5c-1.7 0-2-1.1-2-1.6a11.4 11.4 0 0 1 11.4-9.9h0.4a11.4 11.4 0 0 1 11.4 9.9c0.3 0.5 0 1.6-1.7 1.6z m23.1-6.9a2 2 0 0 1-2 2h-8.8a2 2 0 0 1-2-2v-3a2 2 0 0 1 2-2h8.8a2 2 0 0 1 2 2z m0-11a2 2 0 0 1-2 2h-14.8a2 2 0 0 1-2-2v-3a2 2 0 0 1 2-2h14.8a2 2 0 0 1 2 2z" fill="#fff"></path></svg>

<svg xmlns="http://www.w3.org/2000/svg" width="100" height="100" viewBox="0 0 100 100"><path d="M73.8,29.7H26.3a6,6,0,0,0-6,6V64.3a6,6,0,0,0,6,6H73.7a6,6,0,0,0,6-6V35.7A6.13,6.13,0,0,0,73.8,29.7ZM38.9,35.1a7.6,7.6,0,1,1-7.6,7.6A7.66,7.66,0,0,1,38.9,35.1Zm9.8,28.3H29.2c-1.7,0-2-1.1-2-1.6a11.45,11.45,0,0,1,11.4-9.9H39a11.45,11.45,0,0,1,11.4,9.9C50.7,62.3,50.4,63.4,48.7,63.4Zm23.1-6.9a2,2,0,0,1-2,2H61a2,2,0,0,1-2-2v-3a2,2,0,0,1,2-2h8.8a2,2,0,0,1,2,2Zm0-11a2,2,0,0,1-2,2H55a2,2,0,0,1-2-2v-3a2,2,0,0,1,2-2H69.8a2,2,0,0,1,2,2Z" fill="#fff"/></svg>
